X:1
T:Fur Elise THIS ONE!
T:Fur Elise THIS ONE!
T:Beethoven
C:Beethoven
%%score { 1 | 2 }
L:1/8
M:3/4
K:C
V:1 treble nm="Piano" snm="Pno."
V:2 bass 
V:1
 e^d | e^d eB =dc | A2 z A AA | B2 z B BB | c2 z2 e^d | e^d eB =dc | A2 z A AA | B2 z B cB | %8
w: E D#|E D# E B D C|A A A A|B B B B|C E D#|E D# E B D C|A A A A|B B C B|
 A2 z B cd | e2 z e fe | d2 z d ed | c2 z c dc | c2 z2 e^d | e^d eB =dc | A2 z A AA | B2 z B cB | %16
w: A B C D|E E F E|D D E D|C C D C|C E D#|E D# E B D C|A A A A|B B C B|
 A4 z2 |] %17
w: A|
V:2
 z2 | z6 | A,,6 | E,6 | A,,6 | z6 | A,,6 | E,6 | A,,6 | C,6 | G,,6 | A,,6 | E,6 | z6 | A,,6 | E,6 | %16
w: ||A|E|A||A|E|A|C|G|A|E||A|E|
 A,,6 |] %17
w: A|

